X: 20497
T: John Leary's
R: slide
M: 12/8
K: Dmajor
|:A,B,C|D2 B AFD C2 B, B,3|CB,C A,B,C D2 F A,B,C|
D2 B AFD C2 B, B,3|1 CB,C A,B,C D3:|2 CB,C A,B,C D3 D2||
|:F|A2 F d2 F A2 G E2 F|GFG B=cB A2 F D2 F|
A2 F d2 F A2 G E2 d|1 cBA GFE D3 D2:|2 cBA GFE D3 d3||
|:cBA G2 B {c}B2 A F2 A|cBA GFE D2 E F2 A|
dcB G2 B {c}B2 A F2 A|1 cBA GFE D3 d3:|2 cBA GFE D3||

